**harm	**harte	**silbe	**silbe	**silbe	**rhyme	**timestamp	**phrase	**leadinstrument	**kern
*M4/4	*M4/4	*	*	*	*	*	*	*	*
*	*	*	*	*	*	*	*	*	*
*	*	*	*	*	*	*	*	*	*
*c#:	*c#:	*	*	*	*	*c#:	*c#:	*c#:	*c#:
*	*	*	*	*	*	*	*	*	*
*	*	*	*	*	*	*	*	*	*
1r;	N	.	.	.	.	0	.	r	1r;
=1	=1	=1	=1	=1	=1	=1	=1	=1	=1
*>Letter>C	*>Letter>C	*>Letter>C	*>Letter>C	*>Letter>C	*>Letter>C	*>Letter>C	*>Letter>C	*>Letter>C	*>Letter>C
*>Label>Intro	*>Label>Intro	*>Label>Intro	*>Label>Intro	*>Label>Intro	*>Label>Intro	*>Label>Intro	*>Label>Intro	*>Label>Intro	*>Label>Intro
1r	N	.	.	.	.	0.418	newline	drums	1r
=2	=2	=2	=2	=2	=2	=2	=2	=2	=2
1r	N	.	.	.	.	1.869	.	drums	1r
=3	=3	=3	=3	=3	=3	=3	=3	=3	=3
1i	C#:5(b13)	.	.	.	.	3.32	newline	synthesizer	1C# 1e 1g#
=4	=4	=4	=4	=4	=4	=4	=4	=4	=4
1i	C#:5(b13)	.	.	.	.	5.267	.	synthesizer	1C# 1e 1g#
.	.	.	Who's	.	.	.	.	.	.
.	.	.	wa-	.	.	.	.	.	.
.	.	.	-tching?	.	.	.	.	.	.
=5	=5	=5	=5	=5	=5	=5	=5	=5	=5
1i	C#:5(b13)	.	.	.	.	7.213	.	synthesizer	1C# 1e 1g#
=6	=6	=6	=6	=6	=6	=6	=6	=6	=6
1i	C#:5(b13)	.	.	.	.	9.16	.	synthesizer	1C# 1e 1g#
.	.	.	Tell	.	.	.	.	.	.
.	.	.	me,	.	.	.	.	.	.
.	.	.	who's	.	.	.	.	.	.
.	.	.	wa-	.	.	.	.	.	.
.	.	.	-tching?	.	.	.	.	.	.
=7	=7	=7	=7	=7	=7	=7	=7	=7	=7
1i	C#:5(b13)	.	.	.	.	11.106	newline	synthesizer	1C# 1e 1g#
.	.	.	.	.	.	.	.	.	.
.	.	.	Who's	.	.	.	.	.	.
.	.	.	wa-	.	.	.	.	.	.
.	.	.	-tching	.	.	.	.	.	.
=8	=8	=8	=8	=8	=8	=8	=8	=8	=8
1i	C#:5(b13)	.	me?	.	.	13.046	.	synthesizer	1C# 1e 1g#
.	.	.	.	.	.	.	.	.	.
.	.	.	.	.	.	.	.	.	.
.	.	.	.	.	.	.	.	.	.
=9	=9	=9	=9	=9	=9	=9	=9	=9	=9
1i	C#:5(b13)	.	.	.	.	14.986	.	synthesizer	1C# 1e 1g#
=10	=10	=10	=10	=10	=10	=10	=10	=10	=10
1i	C#:5(b13)	.	.	.	.	16.926	.	synthesizer	1C# 1e 1g#
=11	=11	=11	=11	=11	=11	=11	=11	=11	=11
1i	C#:min	.	.	.	.	18.866	newline	synthesizer	1C# 1e 1g#
=12	=12	=12	=12	=12	=12	=12	=12	=12	=12
2-VI7	A:maj7	.	.	.	.	20.789	.	synthesizer	1A- 1cc 1ee- 1gg#
2-VII	B:maj6	.	.	.	.	21.751	.	synthesizer	2B 2dd# 2ff#
=13	=13	=13	=13	=13	=13	=13	=13	=13	=13
1i	C#:min	.	.	.	.	22.713	.	synthesizer	1C# 1e 1g#
=14	=14	=14	=14	=14	=14	=14	=14	=14	=14
2-VI	A:maj	.	.	.	.	24.637	.	synthesizer	1A- 1cc 1ee-
2-VII7	B:7	.	.	.	.	25.598	.	synthesizer	2B 2dd# 2ff# 2aa
=15	=15	=15	=15	=15	=15	=15	=15	=15	=15
1i	C#:min	.	.	.	.	26.56	newline	synthesizer	1C# 1e 1g#
=16	=16	=16	=16	=16	=16	=16	=16	=16	=16
2-VI7	A:maj7	.	.	.	.	28.497	.	synthesizer	1A- 1cc 1ee- 1gg#
2-VII	B:maj6	.	.	.	.	29.466	.	synthesizer	2B 2dd# 2ff#
=17	=17	=17	=17	=17	=17	=17	=17	=17	=17
1i	C#:min	.	.	.	.	30.434	.	synthesizer	1C# 1e 1g#
=18	=18	=18	=18	=18	=18	=18	=18	=18	=18
2-VI	A:maj	.	.	.	.	32.371	.	synthesizer	1A- 1cc 1ee-
2-VII7	B:7	.	.	.	.	33.34	.	synthesizer	2B 2dd# 2ff# 2aa
=19	=19	=19	=19	=19	=19	=19	=19	=19	=19
*>Letter>A	*>Letter>A	*>Letter>A	*>Letter>A	*>Letter>A	*>Letter>A	*>Letter>A	*>Letter>A	*>Letter>A	*>Letter>A
*>Label>Verse	*>Label>Verse	*>Label>Verse	*>Label>Verse	*>Label>Verse	*>Label>Verse	*>Label>Verse	*>Label>Verse	*>Label>Verse	*>Label>Verse
1i	C#:min	.	.	.	.	34.308	newline	voice	1C# 1e 1g#
.	.	I'm	.	.	.	.	.	.	.
.	.	just	.	.	.	.	.	.	.
.	.	an	.	.	.	.	.	.	.
.	.	a-	.	.	.	.	.	.	.
.	.	_	.	.	.	.	.	.	.
.	.	-verage	.	.	.	.	.	.	.
.	.	man,	.	.	.	.	.	.	.
=20	=20	=20	=20	=20	=20	=20	=20	=20	=20
1-VI	A:maj	.	.	.	.	36.234	.	voice	1A- 1cc 1ee-
.	.	with	.	.	.	.	.	.	.
.	.	an	.	.	.	.	.	.	.
.	.	a	.	.	.	.	.	.	.
.	.	_	.	.	.	.	.	.	.
.	.	verage	.	.	.	.	.	.	.
.	.	life.	.	.	A	.	.	.	.
=21	=21	=21	=21	=21	=21	=21	=21	=21	=21
1i	C#:min	.	.	.	.	38.159	.	voice	1C# 1e 1g#
.	.	I	.	.	.	.	.	.	.
.	.	work	.	.	.	.	.	.	.
.	.	from	.	.	.	.	.	.	.
.	.	nine	.	.	.	.	.	.	.
.	.	to	.	.	.	.	.	.	.
.	.	five,	.	.	A	.	.	.	.
.	.	_	.	.	.	.	.	.	.
=22	=22	=22	=22	=22	=22	=22	=22	=22	=22
2-VI	A:maj	.	.	.	.	40.084	.	voice	2A- 2cc 2ee-
.	.	hey,	.	.	.	.	.	.	.
.	.	hell,	.	.	.	.	.	.	.
.	.	I	.	.	.	.	.	.	.
2-VII	B:maj	pay	.	.	.	41.047	.	voice	2B 2dd# 2ff#
.	.	the	.	.	.	.	.	.	.
.	.	price	.	.	A	.	.	.	.
.	.	_	.	.	.	.	.	.	.
.	.	.	.	.	.	.	.	.	.
=23	=23	=23	=23	=23	=23	=23	=23	=23	=23
1i	C#:min	.	.	.	.	42.009	newline	voice	1C# 1e 1g#
.	.	All	.	.	.	.	.	.	.
.	.	I	.	.	.	.	.	.	.
.	.	want	.	.	.	.	.	.	.
.	.	is	.	.	.	.	.	.	.
.	.	to	.	.	.	.	.	.	.
.	.	be	.	.	.	.	.	.	.
.	.	left	.	.	.	.	.	.	.
.	.	a	.	.	.	.	.	.	.
.	.	lone!	.	.	B	.	.	.	.
.	.	_	.	.	.	.	.	.	.
=24	=24	=24	=24	=24	=24	=24	=24	=24	=24
1-VI	A:maj	.	.	.	.	43.954	.	voice	1A- 1cc 1ee-
.	.	In	.	.	.	.	.	.	.
.	.	my	.	.	.	.	.	.	.
.	.	a-	.	.	.	.	.	.	.
.	.	-verage	.	.	.	.	.	.	.
.	.	home.	.	.	B	.	.	.	.
=25	=25	=25	=25	=25	=25	=25	=25	=25	=25
1i	C#:min	.	.	.	.	45.899	.	voice	1C# 1e 1g#
.	.	But	.	.	.	.	.	.	.
.	.	why	.	.	.	.	.	.	.
.	.	do	.	.	.	.	.	.	.
.	.	I	.	.	.	.	.	.	.
.	.	al-	.	.	.	.	.	.	.
.	.	-ways	.	.	.	.	.	.	.
.	.	feel...	.	.	.	.	.	.	.
=26	=26	=26	=26	=26	=26	=26	=26	=26	=26
2-VI	A:maj	.	.	.	.	47.844	.	voice	2A- 2cc 2ee-
.	.	like	.	.	.	.	.	.	.
.	.	I'm	.	.	.	.	.	.	.
.	.	in	.	.	.	.	.	.	.
.	.	the	.	.	.	.	.	.	.
2-VII	B:maj	Twi-	.	.	.	48.816	.	voice	2B 2dd# 2ff#
.	.	-light	.	.	.	.	.	.	.
.	.	Zone	.	.	B	.	.	.	.
.	.	and...	.	.	.	.	.	.	.
=27	=27	=27	=27	=27	=27	=27	=27	=27	=27
*>Letter>B	*>Letter>B	*>Letter>B	*>Letter>B	*>Letter>B	*>Letter>B	*>Letter>B	*>Letter>B	*>Letter>B	*>Letter>B
*>Label>Chorus	*>Label>Chorus	*>Label>Chorus	*>Label>Chorus	*>Label>Chorus	*>Label>Chorus	*>Label>Chorus	*>Label>Chorus	*>Label>Chorus	*>Label>Chorus
1i	C#:min	.	.	.	.	49.789	newline	voice	1C# 1e 1g#
.	.	I	.	.	.	.	.	.	.
.	.	al-	.	.	.	.	.	.	.
.	.	-ways	.	.	.	.	.	.	.
.	.	feel	.	.	.	.	.	.	.
.	.	like	.	.	.	.	.	.	.
=28	=28	=28	=28	=28	=28	=28	=28	=28	=28
2-VI	A:maj	.	.	.	.	51.724	.	voice	2A- 2cc 2ee-
.	.	some-	.	.	.	.	.	.	.
.	.	-bo-	.	.	.	.	.	.	.
.	.	-dy's	.	.	.	.	.	.	.
2-VII	B:maj	wa-	.	.	.	52.692	.	voice	2B 2dd# 2ff#
.	.	-tching	.	.	.	.	.	.	.
.	.	me!	.	.	C	.	.	.	.
=29	=29	=29	=29	=29	=29	=29	=29	=29	=29
1i	C#:min	_	.	.	.	53.66	.	voice	1C# 1e 1g#
.	.	.	.	.	.	.	.	.	.
.	.	.	.	.	.	.	.	.	.
.	.	And	.	.	.	.	.	.	.
.	.	I	.	.	.	.	.	.	.
.	.	have	.	.	.	.	.	.	.
.	.	no	.	.	.	.	.	.	.
=30	=30	=30	=30	=30	=30	=30	=30	=30	=30
2-VI	A:maj	pri-	.	.	.	55.595	.	voice	2A- 2cc 2ee-
.	.	-va-	.	.	.	.	.	.	.
.	.	-cy.	.	.	C	.	.	.	.
2-VII	B:maj	.	.	.	.	56.563	.	voice	2B 2dd# 2ff#
.	.	Oh!	.	.	.	.	.	.	.
.	.	_	.	.	.	.	.	.	.
.	.	_	.	.	.	.	.	.	.
=31	=31	=31	=31	=31	=31	=31	=31	=31	=31
1i	C#:min	.	.	.	.	57.531	newline	voice	1C# 1e 1g#
.	.	I	.	.	.	.	.	.	.
.	.	al-	.	.	.	.	.	.	.
.	.	-ways	.	.	.	.	.	.	.
.	.	feel	.	.	.	.	.	.	.
.	.	like,	.	.	.	.	.	.	.
=32	=32	=32	=32	=32	=32	=32	=32	=32	=32
2-VI	A:maj	.	.	.	.	59.452	.	voice	2A- 2cc 2ee-
.	.	some-	.	.	.	.	.	.	.
.	.	-bo-	.	.	.	.	.	.	.
.	.	-dy's	.	.	.	.	.	.	.
2-VII	B:maj	wa-	.	.	.	60.412	.	voice	2B 2dd# 2ff#
.	.	-tching	.	.	.	.	.	.	.
.	.	me!	.	.	C	.	.	.	.
=33	=33	=33	=33	=33	=33	=33	=33	=33	=33
1i	C#:min	_	.	.	.	61.373	.	voice	1C# 1e 1g#
.	.	.	.	.	.	.	.	.	.
.	.	.	.	.	.	.	.	.	.
.	.	Tell	.	.	.	.	.	.	.
.	.	me,	.	.	.	.	.	.	.
.	.	is	.	.	.	.	.	.	.
.	.	it	.	.	.	.	.	.	.
=34	=34	=34	=34	=34	=34	=34	=34	=34	=34
2-VI	A:maj	just	.	.	.	63.294	.	voice	2A- 2cc 2ee-
.	.	a	.	.	.	.	.	.	.
.	.	dream?	.	.	C	.	.	.	.
2-VII	B:maj	.	.	.	.	64.254	.	voice	2B 2dd# 2ff#
=35	=35	=35	=35	=35	=35	=35	=35	=35	=35
*>Letter>A	*>Letter>A	*>Letter>A	*>Letter>A	*>Letter>A	*>Letter>A	*>Letter>A	*>Letter>A	*>Letter>A	*>Letter>A
*>Label>Verse	*>Label>Verse	*>Label>Verse	*>Label>Verse	*>Label>Verse	*>Label>Verse	*>Label>Verse	*>Label>Verse	*>Label>Verse	*>Label>Verse
1i	C#:min	.	.	.	.	65.215	newline	voice	1C# 1e 1g#
.	.	When	.	.	.	.	.	.	.
.	.	I	.	.	.	.	.	.	.
.	.	_	.	.	.	.	.	.	.
.	.	come	.	.	.	.	.	.	.
.	.	home	.	.	.	.	.	.	.
.	.	at	.	.	.	.	.	.	.
.	.	night	.	.	A	.	.	.	.
=36	=36	=36	=36	=36	=36	=36	=36	=36	=36
1-VI	A:maj	.	.	.	.	67.152	.	voice	1A- 1cc 1ee-
.	.	.	.	.	.	.	.	.	.
.	.	.	.	.	.	.	.	.	.
=37	=37	=37	=37	=37	=37	=37	=37	=37	=37
1i	C#:min	.	.	.	.	69.089	.	voice	1C# 1e 1g#
.	.	I'd	.	.	.	.	.	.	.
.	.	locked	.	.	.	.	.	.	.
.	.	the	.	.	.	.	.	.	.
.	.	door	.	.	.	.	.	.	.
.	.	_	.	.	.	.	.	.	.
.	.	real	.	.	.	.	.	.	.
.	.	_	.	.	.	.	.	.	.
.	.	tight	.	.	A	.	.	.	.
=38	=38	=38	=38	=38	=38	=38	=38	=38	=38
2-VI	A:maj	.	.	.	.	71.027	.	voice	2A- 2cc 2ee-
.	.	.	.	.	.	.	.	.	.
2-VII	B:maj	.	.	.	.	71.995	.	voice	2B 2dd# 2ff#
=39	=39	=39	=39	=39	=39	=39	=39	=39	=39
1i	C#:min	Peo-	.	.	.	72.964	newline	voice	1C# 1e 1g#
.	.	-ple	.	.	.	.	.	.	.
.	.	call	.	.	.	.	.	.	.
.	.	me	.	.	.	.	.	.	.
.	.	on	.	.	.	.	.	.	.
.	.	my	.	.	.	.	.	.	.
.	.	phone,	.	.	.	.	.	.	.
.	.	I'm	.	.	.	.	.	.	.
=40	=40	=40	=40	=40	=40	=40	=40	=40	=40
2-VI	A:maj	trying	.	.	.	74.898	.	voice	2A- 2cc 2ee-
.	.	to	.	.	.	.	.	.	.
.	.	a-	.	.	.	.	.	.	.
.	.	-void	.	.	D	.	.	.	.
2-VII	B:maj	.	.	.	.	75.866	.	voice	2B 2dd# 2ff#
.	.	.	.	.	.	.	.	.	.
.	.	Well,	.	.	.	.	.	.	.
.	.	can	.	.	.	.	.	.	.
.	.	the	.	.	.	.	.	.	.
=41	=41	=41	=41	=41	=41	=41	=41	=41	=41
1i	C#:min	peo-	.	.	.	76.833	.	voice	1C# 1e 1g#
.	.	-ple	.	.	.	.	.	.	.
.	.	on	.	.	.	.	.	.	.
.	.	T-	.	.	.	.	.	.	.
.	.	-V	.	.	.	.	.	.	.
.	.	see	.	.	.	.	.	.	.
.	.	me	.	.	.	.	.	.	.
.	.	or	.	.	.	.	.	.	.
.	.	am	.	.	.	.	.	.	.
.	.	I	.	.	.	.	.	.	.
=42	=42	=42	=42	=42	=42	=42	=42	=42	=42
2-VI	A:maj	_	.	.	.	78.767	.	voice	2A- 2cc 2ee-
.	.	just	.	.	.	.	.	.	.
.	.	pa-	.	.	.	.	.	.	.
.	.	-ra-	.	.	.	.	.	.	.
.	.	-noid?	.	.	D	.	.	.	.
2-VII	B:maj	_	.	.	.	79.734	.	voice	2B 2dd# 2ff#
.	.	.	.	.	.	.	.	.	.
=43	=43	=43	=43	=43	=43	=43	=43	=43	=43
*>Letter>A	*>Letter>A	*>Letter>A	*>Letter>A	*>Letter>A	*>Letter>A	*>Letter>A	*>Letter>A	*>Letter>A	*>Letter>A
*>Label>Verse	*>Label>Verse	*>Label>Verse	*>Label>Verse	*>Label>Verse	*>Label>Verse	*>Label>Verse	*>Label>Verse	*>Label>Verse	*>Label>Verse
1i	C#:min	.	.	.	.	80.702	newline	voice	1C# 1e 1g#
.	.	When	.	.	.	.	.	.	.
.	.	I'm	.	.	.	.	.	.	.
.	.	in	.	.	.	.	.	.	.
.	.	the	.	.	.	.	.	.	.
.	.	sho	.	.	.	.	.	.	.
.	.	_	.	.	.	.	.	.	.
.	.	wer,	.	.	.	.	.	.	.
.	.	.	.	.	.	.	.	.	.
.	.	I'm	.	.	.	.	.	.	.
.	.	a-	.	.	.	.	.	.	.
=44	=44	=44	=44	=44	=44	=44	=44	=44	=44
2-VI	A:maj	-fraid	.	.	.	82.632	.	voice	2A- 2cc 2ee-
.	.	to	.	.	.	.	.	.	.
.	.	wash	.	.	.	.	.	.	.
.	.	my	.	.	.	.	.	.	.
2-VII	B:maj	hair,	.	.	E	83.597	.	voice	2B 2dd# 2ff#
.	.	.	.	.	.	.	.	.	.
=45	=45	=45	=45	=45	=45	=45	=45	=45	=45
1i	C#:min	.	.	.	.	84.562	.	voice	1C# 1e 1g#
.	.	'cause	.	.	.	.	.	.	.
.	.	I	.	.	.	.	.	.	.
.	.	might	.	.	.	.	.	.	.
.	.	o-	.	.	.	.	.	.	.
.	.	-pen	.	.	.	.	.	.	.
.	.	my	.	.	.	.	.	.	.
.	.	eyes,	.	.	.	.	.	.	.
.	.	_	.	.	.	.	.	.	.
.	.	and	.	.	.	.	.	.	.
.	.	find	.	.	.	.	.	.	.
.	.	some	.	.	.	.	.	.	.
=46	=46	=46	=46	=46	=46	=46	=46	=46	=46
2-VI	A:maj	one	.	.	.	86.493	.	voice	2A- 2cc 2ee-
.	.	stan-	.	.	.	.	.	.	.
.	.	-ding	.	.	.	.	.	.	.
2-VII	B:maj	there!	.	.	E	87.458	.	voice	2B 2dd# 2ff#
.	.	.	.	.	.	.	.	.	.
=47	=47	=47	=47	=47	=47	=47	=47	=47	=47
1i	C#:min	.	.	.	.	88.423	newline	voice	1C# 1e 1g#
.	.	Peo-	.	.	.	.	.	.	.
.	.	-ple	.	.	.	.	.	.	.
.	.	say	.	.	.	.	.	.	.
.	.	I'm	.	.	.	.	.	.	.
.	.	cra	.	.	.	.	.	.	.
.	.	_	.	.	.	.	.	.	.
.	.	zy,	.	.	.	.	.	.	.
.	.	.	.	.	.	.	.	.	.
=48	=48	=48	=48	=48	=48	=48	=48	=48	=48
2-VI	A:maj	.	.	.	.	90.366	.	voice	2A- 2cc 2ee-
.	.	just	.	.	.	.	.	.	.
.	.	a	.	.	.	.	.	.	.
.	.	lit-	.	.	.	.	.	.	.
.	.	-tle	.	.	.	.	.	.	.
.	.	touched	.	.	F	.	.	.	.
2-VII	B:maj	_	.	.	.	91.338	.	voice	2B 2dd# 2ff#
.	.	.	.	.	.	.	.	.	.
.	.	.	.	.	.	.	.	.	.
.	.	but	.	.	.	.	.	.	.
=49	=49	=49	=49	=49	=49	=49	=49	=49	=49
1i	C#:min	may-	.	.	.	92.309	.	voice	1C# 1e 1g#
.	.	-be	.	.	.	.	.	.	.
.	.	sho-	.	.	.	.	.	.	.
.	.	-wers	.	.	.	.	.	.	.
.	.	re-	.	.	.	.	.	.	.
.	.	-mind	.	.	.	.	.	.	.
.	.	me	.	.	.	.	.	.	.
.	.	.	.	.	.	.	.	.	.
.	.	of	.	.	.	.	.	.	.
=50	=50	=50	=50	=50	=50	=50	=50	=50	=50
2-VI	A:maj	Psy-	.	.	.	94.252	.	voice	2A- 2cc 2ee-
.	.	-cho	.	.	.	.	.	.	.
.	.	too	.	.	.	.	.	.	.
.	.	much,	.	.	F	.	.	.	.
2-VII	B:maj	.	.	.	.	95.223	.	voice	2B 2dd# 2ff#
.	.	that's	.	.	.	.	.	.	.
.	.	why...	.	.	.	.	.	.	.
=51	=51	=51	=51	=51	=51	=51	=51	=51	=51
*>Letter>B	*>Letter>B	*>Letter>B	*>Letter>B	*>Letter>B	*>Letter>B	*>Letter>B	*>Letter>B	*>Letter>B	*>Letter>B
*>Label>Chorus	*>Label>Chorus	*>Label>Chorus	*>Label>Chorus	*>Label>Chorus	*>Label>Chorus	*>Label>Chorus	*>Label>Chorus	*>Label>Chorus	*>Label>Chorus
1i	C#:min	.	.	.	.	96.195	newline	voice	1C# 1e 1g#
.	.	I	.	.	.	.	.	.	.
.	.	al-	.	.	.	.	.	.	.
.	.	-ways	.	.	.	.	.	.	.
.	.	feel	.	.	.	.	.	.	.
.	.	like	.	.	.	.	.	.	.
=52	=52	=52	=52	=52	=52	=52	=52	=52	=52
2-VI	A:maj	.	.	.	.	98.122	.	voice	2A- 2cc 2ee-
.	.	some-	.	.	.	.	.	.	.
.	.	-bo-	.	.	.	.	.	.	.
.	.	-dy's	.	.	.	.	.	.	.
2-VII	B:maj	wa-	.	.	.	99.085	.	voice	2B 2dd# 2ff#
.	.	-tching	.	.	.	.	.	.	.
.	.	me!	.	.	C	.	.	.	.
=53	=53	=53	=53	=53	=53	=53	=53	=53	=53
1i	C#:min	_	.	.	.	100.049	.	voice	1C# 1e 1g#
.	.	.	.	.	.	.	.	.	.
.	.	.	.	.	.	.	.	.	.
.	.	And	.	.	.	.	.	.	.
.	.	I	.	.	.	.	.	.	.
.	.	have	.	.	.	.	.	.	.
.	.	no	.	.	.	.	.	.	.
=54	=54	=54	=54	=54	=54	=54	=54	=54	=54
2-VI	A:maj	pri-	.	.	.	101.976	.	voice	2A- 2cc 2ee-
.	.	-va-	.	.	.	.	.	.	.
.	.	-cy,	.	.	c	.	.	.	.
2-VII	B:maj	.	.	.	.	102.94	.	voice	2B 2dd# 2ff#
.	.	whoa-	.	.	.	.	.	.	.
.	.	-oh-	.	.	.	.	.	.	.
.	.	-oh!	.	.	.	.	.	.	.
=55	=55	=55	=55	=55	=55	=55	=55	=55	=55
1i	C#:min	.	.	.	.	103.904	newline	voice	1C# 1e 1g#
.	.	I	.	.	.	.	.	.	.
.	.	al-	.	.	.	.	.	.	.
.	.	-ways	.	.	.	.	.	.	.
.	.	feel	.	.	.	.	.	.	.
.	.	like,	.	.	.	.	.	.	.
=56	=56	=56	=56	=56	=56	=56	=56	=56	=56
2-VI	A:maj	.	.	.	.	105.843	.	voice	2A- 2cc 2ee-
.	.	some-	.	.	.	.	.	.	.
.	.	-bo-	.	.	.	.	.	.	.
.	.	-dy's	.	.	.	.	.	.	.
2-VII	B:maj	wa-	.	.	.	106.813	.	voice	2B 2dd# 2ff#
.	.	-tching	.	.	.	.	.	.	.
.	.	me!	.	.	C	.	.	.	.
=57	=57	=57	=57	=57	=57	=57	=57	=57	=57
1i	C#:min	_	.	.	.	107.783	.	voice	1C# 1e 1g#
.	.	.	.	.	.	.	.	.	.
.	.	.	.	.	.	.	.	.	.
.	.	Who's	.	.	.	.	.	.	.
.	.	pla-	.	.	.	.	.	.	.
.	.	-ying	.	.	.	.	.	.	.
=58	=58	=58	=58	=58	=58	=58	=58	=58	=58
2-VI	A:maj	tricks	.	.	.	109.722	.	voice	2A- 2cc 2ee-
.	.	on	.	.	.	.	.	.	.
.	.	me?	.	.	C	.	.	.	.
2-VII	B:maj	.	.	.	.	110.692	.	voice	2B 2dd# 2ff#
=59	=59	=59	=59	=59	=59	=59	=59	=59	=59
*>Letter>D	*>Letter>D	*>Letter>D	*>Letter>D	*>Letter>D	*>Letter>D	*>Letter>D	*>Letter>D	*>Letter>D	*>Letter>D
*>Label>Solo	*>Label>Solo	*>Label>Solo	*>Label>Solo	*>Label>Solo	*>Label>Solo	*>Label>Solo	*>Label>Solo	*>Label>Solo	*>Label>Solo
1i	C#:min	.	.	.	.	111.662	newline	synthesizer	1C# 1e 1g#
=60	=60	=60	=60	=60	=60	=60	=60	=60	=60
2-VI	A:maj	.	.	.	.	113.587	.	synthesizer	1A- 1cc 1ee-
2-VII	B:maj	.	.	.	.	114.55	.	synthesizer	2B 2dd# 2ff#
=61	=61	=61	=61	=61	=61	=61	=61	=61	=61
1i	C#:min	.	.	.	.	115.513	.	synthesizer	1C# 1e 1g#
=62	=62	=62	=62	=62	=62	=62	=62	=62	=62
2-VI	A:maj	.	.	.	.	117.438	.	synthesizer	1A- 1cc 1ee-
2-VII	B:maj	.	.	.	.	118.401	.	synthesizer	2B 2dd# 2ff#
=63	=63	=63	=63	=63	=63	=63	=63	=63	=63
1i	C#:min	.	.	.	.	119.364	newline	synthesizer	1C# 1e 1g#
=64	=64	=64	=64	=64	=64	=64	=64	=64	=64
2-VI	A:maj	.	.	.	.	121.301	.	synthesizer	1A- 1cc 1ee-
2-VII	B:maj	.	.	.	.	122.269	.	synthesizer	2B 2dd# 2ff#
=65	=65	=65	=65	=65	=65	=65	=65	=65	=65
1i	C#:min	.	.	.	.	123.237	.	synthesizer	1C# 1e 1g#
=66	=66	=66	=66	=66	=66	=66	=66	=66	=66
2-VI	A:maj	.	.	.	.	125.174	.	synthesizer	1A- 1cc 1ee-
2-VII	B:maj	.	.	.	.	126.142	.	synthesizer	2B 2dd# 2ff#
=67	=67	=67	=67	=67	=67	=67	=67	=67	=67
1i	C#:min(b13)	.	.	.	.	127.111	newline	synthesizer	1C# 1e 1g#
=68	=68	=68	=68	=68	=68	=68	=68	=68	=68
1i	C#:min(b13)	.	.	.	.	129.043	.	synthesizer	1C# 1e 1g#
=69	=69	=69	=69	=69	=69	=69	=69	=69	=69
1i	C#:min(b13)	.	.	.	.	130.975	.	synthesizer	1C# 1e 1g#
=70	=70	=70	=70	=70	=70	=70	=70	=70	=70
1i	C#:min(b13)	.	.	.	.	132.906	.	synthesizer	1C# 1e 1g#
=71	=71	=71	=71	=71	=71	=71	=71	=71	=71
1i	C#:min(b13)	.	.	.	.	134.838	newline	synthesizer	1C# 1e 1g#
=72	=72	=72	=72	=72	=72	=72	=72	=72	=72
1i	C#:min(b13)	.	.	.	.	136.786	.	synthesizer	1C# 1e 1g#
=73	=73	=73	=73	=73	=73	=73	=73	=73	=73
1i	C#:min(b13)	.	.	.	.	138.735	.	synthesizer	1C# 1e 1g#
=74	=74	=74	=74	=74	=74	=74	=74	=74	=74
2-VI	A:maj	.	.	.	.	140.683	.	synthesizer	2A- 2cc 2ee-
2-VII	B:maj	.	.	.	.	141.657	.	synthesizer	2B 2dd# 2ff#
.	.	Who's	.	.	.	.	.	.	.
.	.	wa-	.	.	.	.	.	.	.
.	.	-tching	.	.	.	.	.	.	.
=75	=75	=75	=75	=75	=75	=75	=75	=75	=75
*>Letter>E	*>Letter>E	*>Letter>E	*>Letter>E	*>Letter>E	*>Letter>E	*>Letter>E	*>Letter>E	*>Letter>E	*>Letter>E
*>Label>Bridge	*>Label>Bridge	*>Label>Bridge	*>Label>Bridge	*>Label>Bridge	*>Label>Bridge	*>Label>Bridge	*>Label>Bridge	*>Label>Bridge	*>Label>Bridge
1i	C#:min	me?	.	.	C	142.631	newline	voice	1C# 1e 1g#
.	.	.	.	.	.	.	.	.	.
.	.	.	.	.	.	.	.	.	.
.	.	I	.	.	.	.	.	.	.
.	.	don't	.	.	.	.	.	.	.
.	.	know	.	.	.	.	.	.	.
.	.	a-	.	.	.	.	.	.	.
.	.	-ny-	.	.	.	.	.	.	.
.	.	-more!	.	.	.	.	.	.	.
.	.	.	.	.	.	.	.	.	.
=76	=76	=76	=76	=76	=76	=76	=76	=76	=76
1i	C#:min(11)	.	.	.	.	144.556	.	voice	1C# 1e 1g#
.	.	Are	.	.	.	.	.	.	.
.	.	the	.	.	.	.	.	.	.
.	.	neigh-	.	.	.	.	.	.	.
.	.	-bors	Who's	Who's	.	.	.	.	.
.	.	wa-	.	.	.	.	.	.	.
.	.	-tching	.	.	.	.	.	.	.
.	.	me?	wa-	wa-	.	.	.	.	.
.	.	.	-tching?	-tching?	.	.	.	.	.
=77	=77	=77	=77	=77	=77	=77	=77	=77	=77
1i	C#:min	.	.	.	.	146.481	.	voice	1C# 1e 1g#
.	.	.	.	.	.	.	.	.	.
.	.	Well,	.	.	.	.	.	.	.
.	.	is	.	.	.	.	.	.	.
.	.	the	.	.	.	.	.	.	.
.	.	mail-	.	.	.	.	.	.	.
=78	=78	=78	=78	=78	=78	=78	=78	=78	=78
1-VI	A:maj	-man	.	.	.	148.407	.	voice	1A- 1cc 1ee-
.	.	wa-	Tell	Tell	.	.	.	.	.
.	.	-tching	.	.	.	.	.	.	.
.	.	.	me,	me,	.	.	.	.	.
.	.	me?	.	.	.	.	.	.	.
.	.	.	who's	who's	.	.	.	.	.
.	.	.	wa-	wa-	.	.	.	.	.
.	.	.	-tching?	-tching?	.	.	.	.	.
=79	=79	=79	=79	=79	=79	=79	=79	=79	=79
1i	C#:min	.	.	.	.	150.332	newline	voice	1C# 1e 1g#
.	.	And	.	.	.	.	.	.	.
.	.	I	.	.	.	.	.	.	.
.	.	don't	.	.	.	.	.	.	.
.	.	_	.	.	.	.	.	.	.
.	.	feel	.	.	.	.	.	.	.
.	.	safe	.	.	.	.	.	.	.
.	.	a-	.	.	.	.	.	.	.
.	.	-ny-	.	.	.	.	.	.	.
.	.	-more!	.	.	.	.	.	.	.
=80	=80	=80	=80	=80	=80	=80	=80	=80	=80
1-VI7	A:maj7	.	.	.	.	152.268	.	voice	1A- 1cc 1ee- 1gg#
.	.	Oh,	.	.	.	.	.	.	.
.	.	what	.	.	.	.	.	.	.
.	.	a	.	.	.	.	.	.	.
.	.	mess!	.	.	.	.	.	.	.
.	.	_	.	.	.	.	.	.	.
.	.	.	.	.	.	.	.	.	.
.	.	I	.	.	.	.	.	.	.
=81	=81	=81	=81	=81	=81	=81	=81	=81	=81
1i	C#:min	won-	.	.	.	154.204	.	voice	1C# 1e 1g#
.	.	-der	.	.	.	.	.	.	.
.	.	who's	.	.	.	.	.	.	.
.	.	wa-	.	.	.	.	.	.	.
.	.	-tching	.	.	.	.	.	.	.
.	.	me	.	.	.	.	.	.	.
.	.	now?	.	.	.	.	.	.	.
.	.	WHO!	.	.	.	.	.	.	.
=82	=82	=82	=82	=82	=82	=82	=82	=82	=82
2-VI	A:maj	.	.	.	.	156.14	.	voice	2A- 2cc 2ee-
.	.	The	.	.	.	.	.	.	.
.	.	I-	.	.	.	.	.	.	.
.	.	-R-	.	.	.	.	.	.	.
.	.	-S	.	.	.	.	.	.	.
2-VII	B:maj	??	.	.	.	157.108	.	voice	2B 2dd# 2ff#
.	.	.	.	.	.	.	.	.	.
.	.	.	.	.	.	.	.	.	.
=83	=83	=83	=83	=83	=83	=83	=83	=83	=83
*>Letter>B	*>Letter>B	*>Letter>B	*>Letter>B	*>Letter>B	*>Letter>B	*>Letter>B	*>Letter>B	*>Letter>B	*>Letter>B
*>Label>Chorus	*>Label>Chorus	*>Label>Chorus	*>Label>Chorus	*>Label>Chorus	*>Label>Chorus	*>Label>Chorus	*>Label>Chorus	*>Label>Chorus	*>Label>Chorus
1i	C#:min	.	.	.	.	158.076	newline	voice	1C# 1e 1g#
.	.	I	.	.	.	.	.	.	.
.	.	al-	.	.	.	.	.	.	.
.	.	-ways	.	.	.	.	.	.	.
.	.	feel	.	.	.	.	.	.	.
.	.	like	.	.	.	.	.	.	.
=84	=84	=84	=84	=84	=84	=84	=84	=84	=84
2-VI	A:maj	.	.	.	.	160.012	.	voice	2A- 2cc 2ee-
.	.	some-	.	.	.	.	.	.	.
.	.	-bo-	.	.	.	.	.	.	.
.	.	-dy's	.	.	.	.	.	.	.
2-VII	B:maj	wa-	.	.	.	160.981	.	voice	2B 2dd# 2ff#
.	.	-tching	.	.	.	.	.	.	.
.	.	me!	.	.	C	.	.	.	.
=85	=85	=85	=85	=85	=85	=85	=85	=85	=85
1i	C#:min	_	.	.	.	161.949	.	voice	1C# 1e 1g#
.	.	.	.	.	.	.	.	.	.
.	.	.	.	.	.	.	.	.	.
.	.	And	.	.	.	.	.	.	.
.	.	I	.	.	.	.	.	.	.
.	.	have	.	.	.	.	.	.	.
.	.	no	.	.	.	.	.	.	.
=86	=86	=86	=86	=86	=86	=86	=86	=86	=86
2-VI	A:maj	pri-	.	.	.	163.885	.	voice	2A- 2cc 2ee-
.	.	-va-	.	.	.	.	.	.	.
.	.	-cy,	.	.	C	.	.	.	.
2-VII	B:maj	.	.	.	.	164.854	.	voice	2B 2dd# 2ff#
.	.	whoa-	.	.	.	.	.	.	.
.	.	-oh-	.	.	.	.	.	.	.
.	.	-oh!	.	.	.	.	.	.	.
=87	=87	=87	=87	=87	=87	=87	=87	=87	=87
1i	C#:min	.	.	.	.	165.822	newline	voice	1C# 1e 1g#
.	.	I	.	.	.	.	.	.	.
.	.	al-	.	.	.	.	.	.	.
.	.	-ways	.	.	.	.	.	.	.
.	.	feel	.	.	.	.	.	.	.
.	.	like	.	.	.	.	.	.	.
=88	=88	=88	=88	=88	=88	=88	=88	=88	=88
2-VI	A:maj	.	.	.	.	167.744	.	voice	2A- 2cc 2ee-
.	.	some-	.	.	.	.	.	.	.
.	.	-bo-	.	.	.	.	.	.	.
.	.	-dy's	.	.	.	.	.	.	.
2-VII	B:maj	wa-	.	.	.	168.706	.	voice	2B 2dd# 2ff#
.	.	-tching	.	.	.	.	.	.	.
.	.	me!	.	.	C	.	.	.	.
=89	=89	=89	=89	=89	=89	=89	=89	=89	=89
1i	C#:min	_	.	.	.	169.667	.	voice	1C# 1e 1g#
.	.	.	.	.	.	.	.	.	.
.	.	.	.	.	.	.	.	.	.
.	.	Tell	.	.	.	.	.	.	.
.	.	me,	.	.	.	.	.	.	.
.	.	is	.	.	.	.	.	.	.
.	.	it	.	.	.	.	.	.	.
=90	=90	=90	=90	=90	=90	=90	=90	=90	=90
2-VI	A:maj	just	.	.	.	171.59	.	voice	2A- 2cc 2ee-
.	.	a	.	.	.	.	.	.	.
.	.	dream?	.	.	C	.	.	.	.
2-VII	B:maj	.	.	.	.	172.551	.	voice	2B 2dd# 2ff#
=91	=91	=91	=91	=91	=91	=91	=91	=91	=91
1i	C#:min	.	.	.	.	173.513	newline	voice	1C# 1e 1g#
.	.	I	.	.	.	.	.	.	.
.	.	al-	.	.	.	.	.	.	.
.	.	-ways	.	.	.	.	.	.	.
.	.	feel	.	.	.	.	.	.	.
.	.	like	.	.	.	.	.	.	.
=92	=92	=92	=92	=92	=92	=92	=92	=92	=92
2-VI	A:maj	.	.	.	.	175.45	.	voice	2A- 2cc 2ee-
.	.	some-	.	.	.	.	.	.	.
.	.	-bo-	.	.	.	.	.	.	.
.	.	-dy's	.	.	.	.	.	.	.
2-VII	B:maj	wa-	.	.	.	176.418	.	voice	2B 2dd# 2ff#
.	.	-tching	.	.	.	.	.	.	.
.	.	me!	.	.	C	.	.	.	.
=93	=93	=93	=93	=93	=93	=93	=93	=93	=93
1i	C#:min	_	.	.	.	177.387	.	voice	1C# 1e 1g#
.	.	.	.	.	.	.	.	.	.
.	.	.	.	.	.	.	.	.	.
.	.	And	.	.	.	.	.	.	.
.	.	.	_	.	.	.	.	.	.
.	.	I	.	.	.	.	.	.	.
.	.	have	.	.	.	.	.	.	.
.	.	.	_	.	.	.	.	.	.
.	.	no	.	.	.	.	.	.	.
=94	=94	=94	=94	=94	=94	=94	=94	=94	=94
2-VI	A:maj	pri-	_	.	.	179.324	.	voice	2A- 2cc 2ee-
.	.	-va-	.	.	.	.	.	.	.
.	.	-cy,	.	.	c	.	.	.	.
2-VII	B:maj	whoa-	.	.	.	180.292	.	voice	2B 2dd# 2ff#
.	.	-oh-	.	.	.	.	.	.	.
.	.	-oh-	.	.	.	.	.	.	.
.	.	-oh!	.	.	.	.	.	.	.
=95	=95	=95	=95	=95	=95	=95	=95	=95	=95
1i	C#:min	.	.	.	.	181.261	newline	voice	1C# 1e 1g#
.	.	I	.	.	.	.	.	.	.
.	.	al-	.	.	.	.	.	.	.
.	.	-ways	.	.	.	.	.	.	.
.	.	feel	.	.	.	.	.	.	.
.	.	like	.	.	.	.	.	.	.
=96	=96	=96	=96	=96	=96	=96	=96	=96	=96
2-VI	A:maj	.	.	.	.	183.19	.	voice	2A- 2cc 2ee-
.	.	some-	.	.	.	.	.	.	.
.	.	-bo-	.	.	.	.	.	.	.
.	.	-dy's	.	.	.	.	.	.	.
2-VII	B:maj	wa-	.	.	.	184.154	.	voice	2B 2dd# 2ff#
.	.	-tching	.	.	.	.	.	.	.
.	.	me!	.	.	C	.	.	.	.
=97	=97	=97	=97	=97	=97	=97	=97	=97	=97
1i	C#:min	_	.	.	.	185.119	.	voice	1C# 1e 1g#
.	.	.	.	.	.	.	.	.	.
.	.	.	.	.	.	.	.	.	.
.	.	Who's	.	.	.	.	.	.	.
.	.	pla-	.	.	.	.	.	.	.
.	.	-ying	.	.	.	.	.	.	.
=98	=98	=98	=98	=98	=98	=98	=98	=98	=98
2-VI	A:maj	tricks	.	.	.	187.048	.	voice	2A- 2cc 2ee-
.	.	on	.	.	.	.	.	.	.
.	.	me?	.	.	C	.	.	.	.
2-VII	B:maj	.	.	.	.	188.013	.	voice	2B 2dd# 2ff#
.	.	.	Who's	.	.	.	.	.	.
.	.	.	wa-	.	.	.	.	.	.
.	.	.	-tching	.	.	.	.	.	.
=99	=99	=99	=99	=99	=99	=99	=99	=99	=99
*>Letter>B	*>Letter>B	*>Letter>B	*>Letter>B	*>Letter>B	*>Letter>B	*>Letter>B	*>Letter>B	*>Letter>B	*>Letter>B
*>Label>Chorus	*>Label>Chorus	*>Label>Chorus	*>Label>Chorus	*>Label>Chorus	*>Label>Chorus	*>Label>Chorus	*>Label>Chorus	*>Label>Chorus	*>Label>Chorus
1i	C#:min	.	me?	.	.	188.977	newline	voice	1C# 1e 1g#
.	.	I	.	.	.	.	.	.	.
.	.	al-	.	.	.	.	.	.	.
.	.	-ways	.	.	.	.	.	.	.
.	.	feel	.	.	.	.	.	.	.
.	.	like	.	.	.	.	.	.	.
=100	=100	=100	=100	=100	=100	=100	=100	=100	=100
2-VI	A:maj	.	.	.	.	190.909	.	voice	2A- 2cc 2ee-
.	.	some-	.	.	.	.	.	.	.
.	.	-bo-	.	.	.	.	.	.	.
.	.	-dy's	.	.	.	.	.	.	.
2-VII	B:maj	wa-	.	.	.	191.875	.	voice	2B 2dd# 2ff#
.	.	-tching	.	.	.	.	.	.	.
.	.	me!	.	.	C	.	.	.	.
=101	=101	=101	=101	=101	=101	=101	=101	=101	=101
1i	C#:min	_	.	.	.	192.841	.	voice	1C# 1e 1g#
.	.	.	.	.	.	.	.	.	.
.	.	.	.	.	.	.	.	.	.
.	.	.	.	.	.	.	.	.	.
.	.	.	Ooh	.	.	.	.	.	.
=102	=102	=102	=102	=102	=102	=102	=102	=102	=102
2-VI	A:maj	.	_	.	.	194.772	.	voice	2A- 2cc 2ee-
.	.	.	_	.	.	.	.	.	.
.	.	.	_	.	.	.	.	.	.
.	.	.	_	.	.	.	.	.	.
.	.	.	_	.	.	.	.	.	.
2-VII	B:maj	.	.	.	.	195.738	.	voice	2B 2dd# 2ff#
.	.	Whoa-	.	.	.	.	.	.	.
.	.	-oh-	.	.	.	.	.	.	.
.	.	-oh!	.	.	.	.	.	.	.
=103	=103	=103	=103	=103	=103	=103	=103	=103	=103
1i	C#:min	.	.	.	.	196.704	newline	voice	1C# 1e 1g#
.	.	I	.	.	.	.	.	.	.
.	.	al-	.	.	.	.	.	.	.
.	.	-ways	.	.	.	.	.	.	.
.	.	feel	.	.	.	.	.	.	.
.	.	like	.	.	.	.	.	.	.
=104	=104	=104	=104	=104	=104	=104	=104	=104	=104
2-VI	A:maj	.	.	.	.	198.653	.	voice	2A- 2cc 2ee-
.	.	some-	.	.	.	.	.	.	.
.	.	-bo-	.	.	.	.	.	.	.
.	.	-dy's	.	.	.	.	.	.	.
2-VII	B:maj	wa-	.	.	.	199.628	.	voice	2B 2dd# 2ff#
.	.	-tching	.	.	.	.	.	.	.
.	.	me!	.	.	C	.	.	.	.
=105	=105	=105	=105	=105	=105	=105	=105	=105	=105
1i	C#:min	_	.	.	.	200.603	.	voice	1C# 1e 1g#
.	.	.	.	.	.	.	.	.	.
.	.	.	.	.	.	.	.	.	.
.	.	Tell	.	.	.	.	.	.	.
.	.	.	_	.	.	.	.	.	.
.	.	me,	.	.	.	.	.	.	.
.	.	.	_	.	.	.	.	.	.
.	.	who	.	.	.	.	.	.	.
=106	=106	=106	=106	=106	=106	=106	=106	=106	=106
2-VI	A:maj	can	_	.	.	202.552	.	voice	2A- 2cc 2ee-
.	.	it	.	.	.	.	.	.	.
.	.	be!	.	.	C	.	.	.	.
2-VII	B:maj	.	.	.	.	203.527	.	voice	2B 2dd# 2ff#
.	.	.	_	.	.	.	.	.	.
.	.	.	_	.	.	.	.	.	.
.	.	.	_	.	.	.	.	.	.
=107	=107	=107	=107	=107	=107	=107	=107	=107	=107
1i	C#:min	.	_	.	.	204.502	newline	voice	1C# 1e 1g#
.	.	I	.	.	.	.	.	.	.
.	.	al-	.	.	.	.	.	.	.
.	.	-ways	.	.	.	.	.	.	.
.	.	feel	.	.	.	.	.	.	.
.	.	like	.	.	.	.	.	.	.
=108	=108	=108	=108	=108	=108	=108	=108	=108	=108
2-VI	A:maj	.	.	.	.	206.43	.	voice	2A- 2cc 2ee-
.	.	some-	.	.	.	.	.	.	.
.	.	-bo-	.	.	.	.	.	.	.
.	.	-dy's	.	.	.	.	.	.	.
2-VII	B:maj	wa-	.	.	.	207.394	.	voice	2B 2dd# 2ff#
.	.	-tching	.	.	.	.	.	.	.
.	.	me!	.	.	C	.	.	.	.
=109	=109	=109	=109	=109	=109	=109	=109	=109	=109
1i	C#:min	_	.	.	.	208.358	.	voice	1C# 1e 1g#
.	.	.	.	.	.	.	.	.	.
.	.	.	.	.	.	.	.	.	.
.	.	.	.	.	.	.	.	.	.
.	.	.	Ooh	.	.	.	.	.	.
=110	=110	=110	=110	=110	=110	=110	=110	=110	=110
2-VI	A:maj	.	_	.	.	210.286	.	voice	2A- 2cc 2ee-
.	.	.	_	.	.	.	.	.	.
.	.	.	_	.	.	.	.	.	.
.	.	.	.	.	.	.	.	.	.
2-VII	B:maj	Whoa-	.	.	.	211.25	.	voice	2B 2dd# 2ff#
.	.	-oh-	Ah!	.	.	.	.	.	.
.	.	-oh-	.	.	.	.	.	.	.
.	.	-oh!	Ooh!	.	.	.	.	.	.
=111	=111	=111	=111	=111	=111	=111	=111	=111	=111
*>Label>>Fadeout	*>Label>>Fadeout	*>Label>>Fadeout	*>Label>>Fadeout	*>Label>>Fadeout	*>Label>>Fadeout	*>Label>>Fadeout	*>Label>>Fadeout	*>Label>>Fadeout	*>Label>>Fadeout
1i	C#:min	.	.	.	.	212.214	newline	voice	1C# 1e 1g#
.	.	I	.	.	.	.	.	.	.
.	.	al-	.	.	.	.	.	.	.
.	.	-ways	.	.	.	.	.	.	.
.	.	feel	.	.	.	.	.	.	.
.	.	like	.	.	.	.	.	.	.
=112	=112	=112	=112	=112	=112	=112	=112	=112	=112
2-VI	A:maj	.	.	.	.	214.151	.	voice	2A- 2cc 2ee-
.	.	some-	.	.	.	.	.	.	.
.	.	-bo-	.	.	.	.	.	.	.
.	.	-dy's	.	.	.	.	.	.	.
2-VII	B:maj	wa-	.	.	.	215.119	.	voice	2B 2dd# 2ff#
.	.	-tching	.	.	.	.	.	.	.
.	.	me!	.	.	C	.	.	.	.
=113	=113	=113	=113	=113	=113	=113	=113	=113	=113
1i	C#:min	_	.	.	.	216.087	.	voice	1C# 1e 1g#
.	.	.	.	.	.	.	.	.	.
.	.	.	.	.	.	.	.	.	.
.	.	Who's	.	.	.	.	.	.	.
.	.	pla-	.	.	.	.	.	.	.
.	.	-ying	.	.	.	.	.	.	.
=114	=114	=114	=114	=114	=114	=114	=114	=114	=114
2-VI	A:maj	tricks	.	.	.	218.024	.	voice	2A- 2cc 2ee-
.	.	on	.	.	.	.	.	.	.
.	.	me?	.	.	C	.	.	.	.
2-VII	B:maj	.	.	.	.	218.992	.	voice	2B 2dd# 2ff#
.	.	.	Who's	.	.	.	.	.	.
.	.	.	wa-	.	.	.	.	.	.
.	.	.	-tching	.	.	.	.	.	.
=115	=115	=115	=115	=115	=115	=115	=115	=115	=115
1i	C#:min	.	me?	.	.	219.961	newline	voice	1C# 1e 1g#
.	.	I	.	.	.	.	.	.	.
.	.	al-	.	.	.	.	.	.	.
.	.	-ways	.	.	.	.	.	.	.
.	.	feel	.	.	.	.	.	.	.
.	.	like	.	.	.	.	.	.	.
=116	=116	=116	=116	=116	=116	=116	=116	=116	=116
2-VI	A:maj	.	.	.	.	221.892	.	voice	2A- 2cc 2ee-
.	.	some-	.	.	.	.	.	.	.
.	.	-bo-	.	.	.	.	.	.	.
.	.	-dy's	.	.	.	.	.	.	.
2-VII	B:maj	wa-	.	.	.	222.858	.	voice	2B 2dd# 2ff#
.	.	-tching	.	.	.	.	.	.	.
.	.	me!	.	.	C	.	.	.	.
=117	=117	=117	=117	=117	=117	=117	=117	=117	=117
1i	C#:min	_	.	.	.	223.824	.	voice	1C# 1e 1g#
.	.	.	.	.	.	.	.	.	.
.	.	.	.	.	.	.	.	.	.
.	.	Can	.	.	.	.	.	.	.
.	.	I	.	.	.	.	.	.	.
.	.	have	.	.	.	.	.	.	.
.	.	my	.	.	.	.	.	.	.
=118	=118	=118	=118	=118	=118	=118	=118	=118	=118
2-VI	A:maj	pri-	.	.	.	225.756	.	voice	2A- 2cc 2ee-
.	.	-va-	.	.	.	.	.	.	.
.	.	-cy?	.	.	C	.	.	.	.
2-VII	B:maj	_	.	.	.	226.722	.	voice	2B 2dd# 2ff#
.	.	_	Whoa-	.	.	.	.	.	.
.	.	_	-oh-	.	.	.	.	.	.
.	.	.	-oh!	.	.	.	.	.	.
=119	=119	=119	=119	=119	=119	=119	=119	=119	=119
1i	C#:min	.	.	.	.	227.687	newline	voice	1C# 1e 1g#
.	.	I	.	.	.	.	.	.	.
.	.	al-	.	.	.	.	.	.	.
.	.	-ways	.	.	.	.	.	.	.
.	.	feel	.	.	.	.	.	.	.
.	.	like	.	.	.	.	.	.	.
=120	=120	=120	=120	=120	=120	=120	=120	=120	=120
2-VI	A:maj	.	.	.	.	229.628	.	voice	2A- 2cc 2ee-
.	.	some-	.	.	.	.	.	.	.
.	.	-bo-	.	.	.	.	.	.	.
.	.	-dy's	.	.	.	.	.	.	.
2-VII	B:maj	wa-	.	.	.	230.599	.	voice	2B 2dd# 2ff#
.	.	-tching	.	.	.	.	.	.	.
.	.	me!	.	.	C	.	.	.	.
=121	=121	=121	=121	=121	=121	=121	=121	=121	=121
1i	C#:min	_	.	.	.	231.569	.	voice	1C# 1e 1g#
.	.	.	.	.	.	.	.	.	.
.	.	.	.	.	.	.	.	.	.
.	.	Who's	.	.	.	.	.	.	.
.	.	pla-	.	.	.	.	.	.	.
.	.	-ying	.	.	.	.	.	.	.
=122	=122	=122	=122	=122	=122	=122	=122	=122	=122
2-VI	A:maj	tricks	.	.	.	233.51	.	voice	2A- 2cc 2ee-
.	.	on	.	.	.	.	.	.	.
.	.	me?	.	.	C	.	.	.	.
2-VII	B:maj	.	.	.	.	234.48	.	voice	2B 2dd# 2ff#
1r;	N	.	.	.	.	235.45	.	r	1r;
1r;	N	.	.	.	.	241.659	.	r	1r;
*-	*-	*-	*-	*-	*-	*-	*-	*-	*-
!!!BillboardChartDate: 1984/01/28, 1984/03/17
!!!BillboardPeak: 2, 2
!!!BillboardWeeksOnChart: 19, 19
!!!COC: Rockwell
!!!ENC: Nathaniel Condit-Schultz
!!!EST: Awating manual error checking and editing.
!!!OTL: Somebody's Watching Me
!!!RDF**harte: Chris Harte's syntax, used by MIREX
!!!RDF**harmony: **recip + pitch class of root + harmonic quality
!!!RDF**leadinstrument: original McGill primary instrumentation annotation
!!!RDF**phrase: newline = linebreak in original McGill transcription
!!!RDF**timestamp: McGill audio timestamp in seconds
!!!RDT: 2017/01/12/
!!!SampleActualRank: 73,  3
!!!SampleID#: 334, 882
!!!SampleTargetRank: 73,  4
!!!MBID: 81ad1282-c306-4bbb-92f7-88675e4dcbdb
